X:85
M:4/4
L:1/4
K:C
G G G E | c c B2 | A A G c | B A G2 | G G G E | c c c !sintro!c3/4 d/4 | e2 d c3/4 A/4 | A2 G2 !eintro!|]
